src/assets/pixra/snime-1.svg

<?xml version="1.0" encoding="UTF-8" standalone="no"?>
<!-- Created with Inkscape (http://www.inkscape.org/) -->

<svg
   xmlns:dc="http://purl.org/dc/elements/1.1/"
   xmlns:cc="http://creativecommons.org/ns#"
   xmlns:rdf="http://www.w3.org/1999/02/22-rdf-syntax-ns#"
   xmlns:svg="http://www.w3.org/2000/svg"
   xmlns="http://www.w3.org/2000/svg"
   xmlns:sodipodi="http://sodipodi.sourceforge.net/DTD/sodipodi-0.dtd"
   xmlns:inkscape="http://www.inkscape.org/namespaces/inkscape"
   id="svg2"
   version="1.1"
   inkscape:version="0.48.5 r10040"
   width="419.2601"
   height="440.54742"
   sodipodi:docname="snime-1 (1).svg">
  <metadata
     id="metadata8">
    <rdf:RDF>
      <cc:Work
         rdf:about="">
        <dc:format>image/svg+xml</dc:format>
        <dc:type
           rdf:resource="http://purl.org/dc/dcmitype/StillImage" />
        <dc:title />
      </cc:Work>
    </rdf:RDF>
  </metadata>
  <defs
     id="defs6">
    <inkscape:path-effect
       effect="spiro"
       id="path-effect4011"
       is_visible="true" />
    <inkscape:path-effect
       is_visible="true"
       id="path-effect3878"
       effect="spiro" />
    <inkscape:path-effect
       effect="spiro"
       id="path-effect3875"
       is_visible="true" />
    <inkscape:path-effect
       is_visible="true"
       id="path-effect3872"
       effect="spiro" />
    <inkscape:path-effect
       effect="spiro"
       id="path-effect3869"
       is_visible="true" />
    <inkscape:path-effect
       is_visible="true"
       id="path-effect3866"
       effect="spiro" />
    <inkscape:path-effect
       effect="spiro"
       id="path-effect3863"
       is_visible="true" />
    <inkscape:path-effect
       is_visible="true"
       id="path-effect4034"
       effect="spiro" />
    <inkscape:path-effect
       effect="spiro"
       id="path-effect4031"
       is_visible="true" />
    <inkscape:path-effect
       is_visible="true"
       id="path-effect4028"
       effect="spiro" />
    <inkscape:path-effect
       effect="spiro"
       id="path-effect4025"
       is_visible="true" />
    <inkscape:path-effect
       is_visible="true"
       id="path-effect4022"
       effect="spiro" />
    <inkscape:path-effect
       effect="spiro"
       id="path-effect4019"
       is_visible="true" />
    <inkscape:path-effect
       is_visible="true"
       id="path-effect4016"
       effect="spiro" />
    <inkscape:path-effect
       effect="spiro"
       id="path-effect4013"
       is_visible="true" />
    <inkscape:path-effect
       is_visible="true"
       id="path-effect4010"
       effect="spiro" />
    <inkscape:path-effect
       effect="spiro"
       id="path-effect4007"
       is_visible="true" />
    <inkscape:path-effect
       is_visible="true"
       id="path-effect4004"
       effect="spiro" />
    <inkscape:path-effect
       effect="spiro"
       id="path-effect4001"
       is_visible="true" />
    <inkscape:path-effect
       effect="spiro"
       id="path-effect3107"
       is_visible="true" />
    <inkscape:path-effect
       is_visible="true"
       id="path-effect3067"
       effect="spiro" />
    <inkscape:path-effect
       effect="spiro"
       id="path-effect3063"
       is_visible="true" />
    <inkscape:path-effect
       is_visible="true"
       id="path-effect3059"
       effect="spiro" />
    <inkscape:path-effect
       effect="spiro"
       id="path-effect3055"
       is_visible="true" />
    <inkscape:path-effect
       is_visible="true"
       id="path-effect3051"
       effect="spiro" />
    <inkscape:path-effect
       is_visible="true"
       id="path-effect3019"
       effect="spiro" />
    <inkscape:path-effect
       effect="spiro"
       id="path-effect3015"
       is_visible="true" />
    <inkscape:path-effect
       is_visible="true"
       id="path-effect3011"
       effect="spiro" />
    <inkscape:path-effect
       effect="spiro"
       id="path-effect3007"
       is_visible="true" />
    <inkscape:path-effect
       is_visible="true"
       id="path-effect3003"
       effect="spiro" />
    <inkscape:path-effect
       effect="spiro"
       id="path-effect2999"
       is_visible="true" />
    <filter
       inkscape:collect="always"
       id="filter4148"
       x="-0.28524899"
       width="1.570498"
       y="-0.12293633"
       height="1.2458727"
       color-interpolation-filters="sRGB">
      <feGaussianBlur
         inkscape:collect="always"
         stdDeviation="9.8713461"
         id="feGaussianBlur4150" />
    </filter>
  </defs>
  <sodipodi:namedview
     pagecolor="#ffffff"
     bordercolor="#666666"
     borderopacity="1"
     objecttolerance="10"
     gridtolerance="10"
     guidetolerance="10"
     inkscape:pageopacity="0"
     inkscape:pageshadow="2"
     inkscape:window-width="1218"
     inkscape:window-height="1002"
     id="namedview4"
     showgrid="false"
     showguides="true"
     inkscape:guide-bbox="true"
     inkscape:snap-smooth-nodes="true"
     inkscape:object-nodes="true"
     inkscape:snap-page="true"
     inkscape:zoom="0.49518456"
     inkscape:cx="-36.743316"
     inkscape:cy="240.94361"
     inkscape:window-x="54"
     inkscape:window-y="-8"
     inkscape:window-maximized="1"
     inkscape:current-layer="layer3"
     fit-margin-top="0"
     fit-margin-left="0"
     fit-margin-right="0"
     fit-margin-bottom="0" />
  <g
     inkscape:groupmode="layer"
     id="layer5"
     inkscape:label="Background"
     style="display:inline"
     transform="translate(-278.78731,-250.13028)" />
  <g
     inkscape:groupmode="layer"
     id="layer4"
     inkscape:label="Shadow"
     style="opacity:0.2;display:inline"
     transform="translate(-278.78731,-250.13028)">
    <path
       style="fill:#000000;stroke:#000000;stroke-width:6;stroke-linecap:butt;stroke-linejoin:miter;stroke-opacity:1;filter:url(#filter4148)"
       inkscape:connector-curvature="0"
       d="m 488.393,470.40397 171.85681,0 11.10638,-70.19435 -55.2884,-44.76654 -127.67479,114.96089 85.9284,-148.81592 -55.23969,-44.76654 -66.39478,25.52521 35.70607,168.05725 -85.9284,-148.81592 -66.39477,25.52523 -11.10639,70.19434 163.42956,53.09635 -171.80807,0 -11.10639,70.19437 55.23968,44.76651 L 488.393,470.40397 402.4646,619.2199 457.75299,663.98647 524.14778,638.46125 488.393,470.40397 574.3214,619.2199 640.7649,593.6947 651.82258,523.50029 488.393,470.40397 z"
       id="path30-1"
       inkscape:path-effect="#path-effect4011" />
  </g>
  <g
     inkscape:groupmode="layer"
     id="layer2"
     inkscape:label="Flower"
     style="display:inline"
     transform="translate(-278.78731,-250.13028)" />
  <g
     inkscape:groupmode="layer"
     id="layer3"
     inkscape:label="Cogwheel"
     style="display:inline"
     transform="translate(-278.78731,-250.13028)">
    <path
       style="fill:#ffffff;fill-opacity:1;stroke:#0171ff;stroke-width:12;stroke-linejoin:miter;stroke-miterlimit:4;stroke-opacity:1;stroke-dasharray:none"
       inkscape:connector-curvature="0"
       d="m 480.37948,456.8508 171.85681,0 11.10638,-70.19435 -55.2884,-44.76655 -127.67479,114.9609 85.9284,-148.81593 -55.23969,-44.76654 -66.39478,25.52521 35.70607,168.05726 -85.9284,-148.81593 -66.39477,25.52523 -11.10639,70.19435 163.42956,53.09635 -171.80807,0 -11.10639,70.19437 55.23968,44.7665 127.67478,-114.96087 -85.9284,148.81592 55.28839,44.76657 66.39479,-25.52522 -35.75478,-168.05727 85.9284,148.81592 66.4435,-25.5252 11.05768,-70.1944 -163.42958,-53.09632 z"
       id="path30" />
  </g>
</svg>

<svg xmlns="http://www.w3.org/2000/svg" width="419.26" height="440.547"><defs><filter id="a" width="1.147" height="1.14" x="-.074" y="-.07" color-interpolation-filters="sRGB"><feGaussianBlur stdDeviation="9.871"/></filter></defs><g style="opacity:.2;display:inline"><path d="M488.393 470.404H660.25l11.106-70.194-55.288-44.767-127.675 114.961 85.928-148.816-55.24-44.766-66.394 25.525 35.706 168.057-85.928-148.816-66.395 25.525-11.107 70.195 163.43 53.096H316.585l-11.106 70.194 55.24 44.767 127.674-114.961-85.928 148.816 55.288 44.766 66.395-25.525-35.755-168.057 85.928 148.816 66.444-25.525 11.058-70.195-163.43-53.096z" style="fill:#000;stroke:#000;stroke-width:6;stroke-linecap:butt;stroke-linejoin:miter;stroke-opacity:1;filter:url(#a)" transform="translate(-278.787 -250.13)"/></g><g style="display:inline"><path d="M480.38 456.85h171.856l11.107-70.194-55.289-44.766L480.38 456.85l85.929-148.815-55.24-44.767-66.395 25.526L480.38 456.85l-85.928-148.816-66.395 25.525-11.106 70.194 163.43 53.097H308.57l-11.106 70.194 55.24 44.767L480.379 456.85l-85.928 148.816 55.288 44.766 66.395-25.525-35.755-168.057 85.929 148.816 66.443-25.525 11.058-70.195-163.43-53.096z" style="fill:#fff;fill-opacity:1;stroke:#0171ff;stroke-width:12;stroke-linejoin:miter;stroke-miterlimit:4;stroke-opacity:1;stroke-dasharray:none" transform="translate(-278.787 -250.13)"/></g></svg>
